assets/icons/calendar_colored.svg

<svg fill="none" height="18" viewBox="0 0 18 18" width="18" xmlns="http://www.w3.org/2000/svg" xmlns:xlink="http://www.w3.org/1999/xlink"><clipPath id="a"><path d="m0 0h18v18h-18z"/></clipPath><mask id="b" height="18" maskUnits="userSpaceOnUse" width="18" x="0" y="0"><path d="m18 0h-18v18h18z" fill="#fff"/></mask><g clip-path="url(#a)"><g fill="#000" mask="url(#b)"><path d="m14.625 18h-11.25c-.02481-.0131-.05098-.0235-.07805-.0309-1.47902-.2247-2.506989-1.0259-3.054372-2.4195-.115664-.2942-.1634764-.6156-.242578-.9246v-9.73828c.0467578-.21481.0829687-.43277.140625-.64442.211188-.76578.661553-1.44404 1.285385-1.93582.62384-.49179 1.3885-.77136 2.18243-.79793.29039-.00984.58148 0 .89086 0 0-.21093.0109-.39621-.00211-.580777-.03235-.464414.15609-.777304.60047-.927773h.3164c.44789.163125.62473.492188.59133.954492-.01266.177538-.00211.356488-.00211.535778h5.99342c0-.1923.0099-.37336-.0021-.553004-.0299-.458789.1529-.777305.5913-.937266h.3164c.4451.149766.6329.464062.5995.926016-.0127.184574-.0022.370894-.0022.575864h.6796c1.6242.00527 2.9883.91089 3.5603 2.39062.123.31641.1758.66164.2605.99352v9.73898c-.0132.0247-.0234.0509-.0306.078-.2246 1.4794-1.0265 2.5067-2.4194 3.0548-.2946.1156-.616.1631-.925.2422zm-13.12172-10.49062v.17226 6.50386c-.00406.1406.00465.2812.02602.4202.2148 1.1496 1.09898 1.8896 2.27074 1.8907 3.46266.003 6.92536.003 10.38796 0 .1406.0041.2812-.0048.4201-.0268 1.1567-.2183 1.8872-1.1046 1.8883-2.29.0014-2.1621.0014-4.32425 0-6.48636v-.18386zm14.99102-1.51805c0-.27879.0077-.54703 0-.81492-.0426-1.22063-1.0196-2.17618-2.2367-2.17723-3.5026-.00387-7.00522-.02145-10.50748.00738-1.575.01301-2.48555 1.32645-2.21485 2.98477z"/><path d="m10.125 11.2433c.0013.2225-.0634.4404-.1859.6262-.12252.1857-.29736.3309-.50242.4173s-.43112.11-.6496.0679-.41957-.1481-.57783-.3045c-.15827-.1564-.2666-.3562-.31131-.5742-.0447-.2179-.02377-.4443.06016-.6503.08392-.2061.22707-.3827.41133-.5074.18427-.1247.40138-.192.62388-.1933.14774-.0009.2942.0274.43103.0831s.26134.1379.36643.2417.18869.2274.24603.3635c.0573.1362.0873.2823.0882.43z"/><path d="m6.37117 11.2636c-.00879.6356-.51187 1.1201-1.15312 1.1109-.60293-.0087-1.11058-.5361-1.09617-1.138.00241-.1492.03437-.2965.09402-.4334.05965-.1368.14581-.2605.25351-.3638.1077-.1034.23481-.1844.37398-.2383.13918-.054.28766-.0798.43689-.0761.60925.0102 1.09933.5217 1.09089 1.1387z"/><path d="m11.6285 11.2372c.0085-.6353.5119-1.1208 1.1524-1.1116.6033.0088 1.1096.534 1.0969 1.1376-.0023.1493-.0343.2966-.0939.4334-.0596.1369-.1457.2606-.2534.364-.1076.1033-.2347.1844-.3739.2384-.1391.054-.2876.0799-.4368.0762-.6089-.0098-1.0997-.5214-1.0913-1.138z"/></g></g></svg>

<svg width="18" height="18" viewBox="0 0 18 18" fill="none" xmlns="http://www.w3.org/2000/svg">
<g clip-path="url(#clip0_235_2207)">
<mask id="mask0_235_2207" style="mask-type:alpha" maskUnits="userSpaceOnUse" x="0" y="0" width="18" height="18">
<path d="M18 0H0V18H18V0Z" fill="white"/>
</mask>
<g mask="url(#mask0_235_2207)">
<path d="M14.625 18H3.375C3.35019 17.9869 3.32402 17.9765 3.29695 17.9691C1.81793 17.7444 0.789961 16.9432 0.242578 15.5496C0.126914 15.2554 0.0791016 14.934 0 14.625V4.88672C0.0467578 4.67191 0.0829687 4.45395 0.140625 4.2423C0.351813 3.47652 0.802178 2.79826 1.42601 2.30648C2.04985 1.81469 2.81451 1.53512 3.60844 1.50855C3.89883 1.49871 4.18992 1.50855 4.4993 1.50855C4.4993 1.29762 4.5102 1.11234 4.49719 0.927773C4.46484 0.463359 4.65328 0.150469 5.09766 0H5.41406C5.86195 0.163125 6.03879 0.492188 6.00539 0.954492C5.99273 1.13203 6.00328 1.31098 6.00328 1.49027H11.9967C11.9967 1.29797 12.0066 1.11691 11.9946 0.937266C11.9647 0.478477 12.1475 0.159961 12.5859 0H12.9023C13.3474 0.149766 13.5352 0.464062 13.5018 0.926016C13.4891 1.11059 13.4996 1.29691 13.4996 1.50188C13.738 1.50188 13.9584 1.50188 14.1792 1.50188C15.8034 1.50715 17.1675 2.41277 17.7395 3.8925C17.8625 4.20891 17.9153 4.55414 18 4.88602V14.625C17.9868 14.6497 17.9766 14.6759 17.9694 14.703C17.7448 16.1824 16.9429 17.2097 15.55 17.7578C15.2554 17.8734 14.934 17.9209 14.625 18ZM1.50328 7.50938V7.68164C1.50328 9.84984 1.50328 12.0178 1.50328 14.1855C1.49922 14.3261 1.50793 14.4667 1.5293 14.6057C1.7441 15.7553 2.62828 16.4953 3.80004 16.4964C7.2627 16.4994 10.7254 16.4994 14.188 16.4964C14.3286 16.5005 14.4692 16.4916 14.6081 16.4696C15.7648 16.2513 16.4953 15.365 16.4964 14.1796C16.4978 12.0175 16.4978 9.85535 16.4964 7.69324V7.50938H1.50328ZM16.4943 5.99133C16.4943 5.71254 16.502 5.4443 16.4943 5.17641C16.4517 3.95578 15.4747 3.00023 14.2576 2.99918C10.755 2.99531 7.25238 2.97773 3.75012 3.00656C2.17512 3.01957 1.26457 4.33301 1.53527 5.99133H16.4943Z" fill="black"/>
<path d="M10.125 11.2433C10.1263 11.4658 10.0616 11.6837 9.9391 11.8695C9.81658 12.0552 9.64174 12.2004 9.43668 12.2868C9.23162 12.3732 9.00556 12.3968 8.78708 12.3547C8.5686 12.3126 8.36751 12.2066 8.20925 12.0502C8.05098 11.8938 7.94265 11.694 7.89794 11.476C7.85324 11.2581 7.87417 11.0317 7.9581 10.8257C8.04202 10.6196 8.18517 10.443 8.36943 10.3183C8.5537 10.1936 8.77081 10.1263 8.99331 10.125C9.14105 10.1241 9.28751 10.1524 9.42434 10.2081C9.56117 10.2638 9.68568 10.346 9.79077 10.4498C9.89586 10.5536 9.97946 10.6772 10.0368 10.8133C10.0941 10.9495 10.1241 11.0956 10.125 11.2433Z" fill="black"/>
<path d="M6.37117 11.2636C6.36238 11.8992 5.8593 12.3837 5.21805 12.3745C4.61512 12.3658 4.10747 11.8384 4.12188 11.2365C4.12429 11.0873 4.15625 10.94 4.2159 10.8031C4.27555 10.6663 4.36171 10.5426 4.46941 10.4393C4.57711 10.3359 4.70422 10.2549 4.84339 10.201C4.98257 10.147 5.13105 10.1212 5.28028 10.1249C5.88953 10.1351 6.37961 10.6466 6.37117 11.2636Z" fill="black"/>
<path d="M11.6285 11.2372C11.637 10.6019 12.1404 10.1164 12.7809 10.1256C13.3842 10.1344 13.8905 10.6596 13.8778 11.2632C13.8755 11.4125 13.8435 11.5598 13.7839 11.6966C13.7243 11.8335 13.6382 11.9572 13.5305 12.0606C13.4229 12.1639 13.2958 12.245 13.1566 12.299C13.0175 12.353 12.869 12.3789 12.7198 12.3752C12.1109 12.3654 11.6201 11.8538 11.6285 11.2372Z" fill="black"/>
</g>
</g>
<defs>
<clipPath id="clip0_235_2207">
<rect width="18" height="18" fill="white"/>
</clipPath>
</defs>
</svg>
